images/grid.svg

<?xml version="1.0" encoding="utf-8"?>
<!-- Generated by IcoMoon.io -->
<!DOCTYPE svg PUBLIC "-//W3C//DTD SVG 1.1//EN" "http://www.w3.org/Graphics/SVG/1.1/DTD/svg11.dtd">
<svg version="1.1" xmlns="http://www.w3.org/2000/svg" xmlns:xlink="http://www.w3.org/1999/xlink" width="30" height="30" viewBox="0 0 30 30">
<g>
	<line stroke-width="1" x1="" y1="" x2="" y2="" stroke="#449FDB" opacity=""></line>
</g>
	<path d="M11 18h-5.999v-6h5.999v6zM11 5.001h-5c-0.552 0-0.999 0.448-0.999 0.999v5h5.999v-5.999zM18 11v-5.999h-6v5.999h6zM12 18h6v-6h-6v6zM5.001 19v5c0 0.555 0.447 1 0.999 1h5v-6h-5.999zM24.001 5.001h-5.001v5.999h6v-5c0-0.551-0.447-0.999-0.999-0.999zM19 18h6v-6h-6v6zM12 19v6h6v-6h-6zM19 25h5.001c0.552 0 0.999-0.445 0.999-1v-5h-6v6z" fill="#000000"></path>
</svg>

<?xml version="1.0" encoding="UTF-8" standalone="no"?>
<!-- Created with Inkscape (http://www.inkscape.org/) -->

<svg
   xmlns:dc="http://purl.org/dc/elements/1.1/"
   xmlns:cc="http://creativecommons.org/ns#"
   xmlns:rdf="http://www.w3.org/1999/02/22-rdf-syntax-ns#"
   xmlns:svg="http://www.w3.org/2000/svg"
   xmlns="http://www.w3.org/2000/svg"
   xmlns:inkscape="http://www.inkscape.org/namespaces/inkscape"
   version="1.1"
   width="30"
   height="30"
   viewBox="0 0 30 30"
   id="svg2">
  <metadata
     id="metadata10">
    <rdf:RDF>
      <cc:Work
         rdf:about="">
        <dc:format>image/svg+xml</dc:format>
        <dc:type
           rdf:resource="http://purl.org/dc/dcmitype/StillImage" />
      </cc:Work>
    </rdf:RDF>
  </metadata>
  <defs
     id="defs8" />
  <path
     d="M 11,18 H 5 v -6 h 6 v 6 z M 11,5 H 6 C 5.448,5 5,5.45 5,6 v 5 h 6 V 5 z m 7,6 V 5 h -6 v 6 h 6 z m -6,7 h 6 v -6 h -6 v 6 z m -7,1 v 5 c 0,0.555 0.448,1 1,1 h 5 V 19 H 5 z M 24,5 h -5 v 6 h 6 V 6 C 25,5.45 24.553,5 24,5 z m -5,13 h 6 v -6 h -6 v 6 z m -7,1 v 6 h 6 v -6 h -6 z m 7,6 h 5 c 0.553,0 1,-0.445 1,-1 v -5 h -6 v 6 z"
     inkscape:connector-curvature="0"
     id="path4" />
</svg>
